!!!OTL: ES WOLLT EIN MAEDCHEN SPAZIEREN GEHN
!!!ARE: Europa, Mitteleuropa, Deutschland, Uckermark, Granzow
!!!SCT: E0174C
!!!YEM: Copyright 1995, estate of Helmut Schaffrath.
**kern
*ICvox
*Ivox
*M3/4
*k[f#]
*G:
{8d
=1
8d
8g
4g
4g
=2
8d
16f#
16g
4.a}
{16b
16a
=3
8g
8g
4.g
16a
16b
=4
8cc
8b
4a
8r}
{8b
=5
8g
8g
4.cc
8b
=6
8a
8g
4.a}
{8b
=7
8g
8g
8.b
16a
8g
8g
=8
4f#
4g
8r}
==
!!!AGN: erzaehlendes Volks - Lied, Sage, Pflanzen - Maerchen, Moral - Lied
!!!ONB: ESAC (Essen Associative Code) Database: ERK1
!!!AMT: simple triple
!!!AIN: vox
!!!EED: Helmut Schaffrath
!!!EEV: 1.0
*-
